Simply black circles/symbolic/panel/battery-caution-symbolic.svg

<?xml version="1.0" encoding="UTF-8" standalone="no"?>
<svg
   xmlns:dc="http://purl.org/dc/elements/1.1/"
   xmlns:cc="http://creativecommons.org/ns#"
   xmlns:rdf="http://www.w3.org/1999/02/22-rdf-syntax-ns#"
   xmlns:svg="http://www.w3.org/2000/svg"
   xmlns="http://www.w3.org/2000/svg"
   xmlns:sodipodi="http://sodipodi.sourceforge.net/DTD/sodipodi-0.dtd"
   xmlns:inkscape="http://www.inkscape.org/namespaces/inkscape"
   width="24"
   height="24"
   version="1.1"
   id="svg10"
   sodipodi:docname="battery-caution-symbolic.svg"
   inkscape:version="0.92.3 (2405546, 2018-03-11)">
  <metadata
     id="metadata16">
    <rdf:RDF>
      <cc:Work
         rdf:about="">
        <dc:format>image/svg+xml</dc:format>
        <dc:type
           rdf:resource="http://purl.org/dc/dcmitype/StillImage" />
        <dc:title></dc:title>
      </cc:Work>
    </rdf:RDF>
  </metadata>
  <defs
     id="defs14" />
  <sodipodi:namedview
     pagecolor="#ffffff"
     bordercolor="#666666"
     borderopacity="1"
     objecttolerance="10"
     gridtolerance="10"
     guidetolerance="10"
     inkscape:pageopacity="0"
     inkscape:pageshadow="2"
     inkscape:window-width="1366"
     inkscape:window-height="719"
     id="namedview12"
     showgrid="false"
     showguides="true"
     inkscape:guide-bbox="true"
     inkscape:snap-global="true"
     inkscape:zoom="15.6742"
     inkscape:cx="1.4664654"
     inkscape:cy="11.744804"
     inkscape:window-x="0"
     inkscape:window-y="25"
     inkscape:window-maximized="1"
     inkscape:current-layer="svg10" />
  <path
     style="opacity:1;fill:#808080;fill-opacity:0.99579827;stroke:none;stroke-width:1.5;stroke-miterlimit:4;stroke-dasharray:none;stroke-opacity:1"
     d="M 12 0.08984375 C 5.352 0.08984375 0 5.382056 0 11.955078 C 0 18.5281 5.352 23.820312 12 23.820312 C 18.648 23.820312 24 18.5281 24 11.955078 C 24 5.382056 18.648 0.08984375 12 0.08984375 z M 12 3.0566406 C 16.986 3.0566406 21 7.0253117 21 11.955078 C 21 16.884845 16.986 20.853516 12 20.853516 C 7.014 20.853516 3 16.884845 3 11.955078 C 3 7.0253117 7.014 3.0566406 12 3.0566406 z M 12 4.8554688 C 11.209969 4.8554688 10.568359 5.4971235 10.568359 6.2871094 L 10.568359 13.443359 C 10.568359 14.23339 11.210014 14.873047 12 14.873047 C 12.789986 14.873047 13.431641 14.233345 13.431641 13.443359 L 13.431641 6.2871094 C 13.431641 5.4970785 12.790031 4.8554687 12 4.8554688 z M 12 16.28125 A 1.4311876 1.431188 0 0 0 10.568359 17.712891 A 1.4311876 1.431188 0 0 0 12 19.144531 A 1.4311876 1.431188 0 0 0 13.431641 17.712891 A 1.4311876 1.431188 0 0 0 12 16.28125 z "
     id="rect814" />
</svg>

<svg xmlns="http://www.w3.org/2000/svg" width="24" height="24"><path d="M12 .09C5.352.09 0 5.382 0 11.955S5.352 23.82 12 23.82s12-5.292 12-11.865S18.648.09 12 .09zm0 2.967c4.986 0 9 3.968 9 8.898s-4.014 8.899-9 8.899-9-3.97-9-8.899c0-4.93 4.014-8.898 9-8.898zm0 1.798c-.79 0-1.432.642-1.432 1.432v7.156a1.43 1.43 0 0 0 2.864 0V6.287c0-.79-.642-1.432-1.432-1.432zm0 11.426a1.431 1.431 0 0 0-1.432 1.432A1.431 1.431 0 0 0 12 19.145a1.431 1.431 0 0 0 1.432-1.432A1.431 1.431 0 0 0 12 16.28z" fill="gray" fill-opacity=".996"/></svg>
